img/bath.svg

<svg width="32" height="32" viewBox="0 0 32 32" fill="none" xmlns="http://www.w3.org/2000/svg">
<path d="M12.0007 7.77786C12.0007 6.95274 11.6495 6.16142 11.0243 5.57797C10.3992 4.99452 9.55137 4.66675 8.66732 4.66675V4.66675C7.78326 4.66675 6.93542 4.99452 6.31029 5.57797C5.68517 6.16142 5.33398 6.95274 5.33398 7.77786V14.0001" stroke="#191A23" stroke-width="1.5" stroke-linecap="round" stroke-linejoin="round"/>
<path d="M4 14H28M23.3333 24.6667L24 27.3333M8.66667 24.6667L8 27.3333M26.6667 19.3333V14H5.33333V19.3333C5.33333 20.7478 5.89524 22.1044 6.89543 23.1046C7.89562 24.1048 9.25218 24.6667 10.6667 24.6667H21.3333C22.7478 24.6667 24.1044 24.1048 25.1046 23.1046C26.1048 22.1044 26.6667 20.7478 26.6667 19.3333Z" stroke="#191A23" stroke-width="1.5" stroke-linecap="round" stroke-linejoin="round"/>
</svg>

<svg xmlns="http://www.w3.org/2000/svg" width="32" height="32" fill="none"><path stroke="#191A23" stroke-linecap="round" stroke-linejoin="round" stroke-width="1.5" d="M12 7.778a3 3 0 0 0-.976-2.2 3.46 3.46 0 0 0-2.357-.911v0c-.884 0-1.732.328-2.357.911a3 3 0 0 0-.976 2.2V14M4 14h24m-4.667 10.667L24 27.333M8.667 24.667 8 27.333m18.667-8V14H5.333v5.333a5.333 5.333 0 0 0 5.334 5.334h10.666a5.333 5.333 0 0 0 5.334-5.334"/></svg>
